X:1
T:19 - Su'l carro de la mente
T:Luca Marenzio (1556 - 1599) 1º Libro di Madrigali a quattro voci (Venetia, 1592)
T:Torquato Tasso
T:19 - Su'l carro de la mente
T:© 2018 Ed. Marcos Mato
T:© 2018 Ed. Marcos Mato
T:© 2018 Ed. Marcos Mato
T:© 2018 Ed. Marcos Mato
T:© 2018 Ed. Marcos Mato
T:© 2018 Ed. Marcos Mato
T:© 2018 Ed. Marcos Mato
T:© 2018 Ed. Marcos Mato
T:© 2018 Ed. Marcos Mato
C:Luca Marenzio (1556 - 1599)
C:1º Libro di Madrigali a quattro voci (Venetia, 1592)
Z:Torquato Tasso
Z:© 2018 Ed. Marcos Mato
%%score [ 1 2 3 4 ]
L:1/8
M:4/4
K:F
V:1 treble nm="Soprano" snm="Sop."
V:2 alto2 nm="Alto" snm="A."
V:3 alto transpose=-12 nm="Tenor" snm="T."
V:4 bass3 nm="Basso" snm="Bajo"
V:1
 c4 | [Eg]2 |[M:4/2]"^Prima parte" c8 c8 | c4 c8 A4 | d8 e8 | e4 g4 f8 | e8 z8 | c8 G4 E4 | %8
w: ||Su'l car-|ro del- la|men- te\_au-|ri- ga sie-|di,|o bel- la|
 A6 GF G8 | E8 z8 | z4 c4 g6 f2 | e4 d2 g4"^#" ^fe f4 | g2 GA Bc d4 ^c2 d4 | z8 z4 d4- | %14
w: don- * * *|na,|e prend' il|fre- no\_al- te- * * *|ro, al- * * * * te- ro,|on-|
 d2 d2 c4 B8 | A3 d c4 d3 B f4- | f4 e8 d4 | ^c2 c2 z2 d2 G2 A2 B2"^§" =c2 | d2 e2 f2 g2 a6 gf | %19
w: * de vi reg-|ga\_il des- trier, il des- trier|_ bian- co,\_e'l|ne- ro, e driz- zi lor ver|le ce- les- ti se- * *|
 e2 d2 cBAB c8 | c8 z4 c4 | z4 z2 c2 d3 d d4 | e3 d e3 f d3 c d4 | e4 c8 d3 c | B6 A2 B2 c2 d2 A2 | %25
w: |di. L'un|con ri- gi- da|man per- co- ti,\_e fie- * *|di se ri- bel-|lan- te tra- vi- ar dal|
 f4 e4 e4 d4 | ^c4 z2 d2 d4 G4 | G4 A4 B8- | B4 B4 A8 | G16 | z4 d4 ^c4 d4 | B4 A4 z8 | %32
w: ve- ro ca- mi-|no, e l'al- tro|con soa- ve|_ im- pe-|ro|d'am- bro- sia|pas- ci,|
 c2 d2 e2 f2 g8 | g8 z4 d4 | ^c4 d4 B4 A4 | z8 =c2 d2 e2 f2 | g8 c8- | c16 || %38
w: se gir drit- to\_il ve-|di, d'am-|bro- sia pas- ci,|se gir drit- to\_il|ve- di.|_|
"^Seconda parte" z8 c8 | A8 z4 f4 | e2 c2 d2 e2 f2 f2 e4 | d3 e f6 ed e4 | f16 | %43
w: Ve-|di, ch'e-|gli\_a- ma\_il suon de la cer- vi-|ce per- cos- * * *|sa,|
 z4 d4 c2 A2 B2 c2 | d2 d2 c4 B3 c d4 | c8 z4 A4 | =B4 ^c4 d4 A2 f2 | f4 f4 e8 | d8 z4 d4 | %49
w: ch'e- gli\_a- ma\_il suon de|la cer- vi- ce per- cos-|sa, e|le lu- sin- ghe, e|le lu- sin-|ghe, e|
 e4 ^f4 g4 d4 | z2 =B4 c2 c8 | A8 G4 z2 c2 | A2 d2 dcBA G2 c2 cBAG | F2 B2 BAGF E4 F4 | %54
w: le lu- sin- ghe,|e tra se|go- de, se|la tua va- * * * * ga man _ _ _|_ l'a- dor- * * * * na,|
 z2 c2 f3 e/d/ c8 | c8 G4 A4 | =B4 c4 d4 e4 | f4 d2 c2 d4 d4 | z2 G2 A2 B2 c8 | =B8 z8 | z16 | %61
w: e co- * * *|me, e, men-|tre por- ta\_al ciel|del tuo bel no- me|il ric- co\_in- car-|co,||
 z8 c8 | c4 c4 c4 c4 | d8 G2 g2 e2 f2 | gfed c2 e2 c2 d2 edcB | A12 z2 c2 | A2 B2 c2 d2 =B4 c4- | %67
w: e|di tua chia- ra|lo- de, si tien piu|d'E- * * * * to,\_e di Pi- roo, _ _ _|_ e|di Pi- roo fe- li- *|
 c2"^§" =BA B4 c8- | c16 | z8 z2 g2 e2 f2 | gfed c2 e2 c2 d2 edcB | A4 z2 c2 A2 B2 c2 d2 | %72
w: * * * * ce,|_|si tien piu|d'E- * * * * to,\_e di Pi- roo, _ _ _|_ e di Pi- roo fe-|
 =B4 c6 BA B4 | c16 |] %74
w: li- * * * *|ce.|
V:2
 C4 | [A,c]2 |[M:4/2] C8 C2 D2 E2 C2 | F6 G2 A2 B2 c4- | c2 BA =B4 c4 G4 | G4 G4 A8- | A8 G8- | %7
w: ||Su'l car- ro del- la|men- te\_au- ri- ga sie-|* * * * di, o|bel- la don-|* na,|
 G8 z8 | z4 F4 c6 B2 | A4 G2 c4"^§" =BA B4 | c2 C2 E2 C2 D2 G2 c4- | c2 =BA B4 c4 z2 A2 | %12
w: _|e pren- di\_il|fre- no\_al- te- * * *|ro, e prend' il fre- no\_al- te-|* * * * ro, e|
 _B6 A2 G4 F4 | E4 A4 z4 B4- | B2 B2 A4 G4 G4 | z2 F3 G A2 z2 B3 A =B2 | c12 _B4 | %17
w: pren- di\_il fren' al-|te- ro on-|* de vi reg- ga|il des- trier, il des- trier|bianc', e'l|
 A2 A2 z2 D2 E2 ^F2 G4 | z4 A8 A,2 B,2 | C2 D2 E2 F2 G2 A2 G4 | A8 z4 z2 A2 | %21
w: ne- ro, e driz- zi lor,|e driz- zi|lor ver le ce- les- ti se-|di. Con|
 =B3 B c2 A3 F _B3 A B2 | GG c3 =B c2 AA B3 A B2 | c4 A8 _B3 A | G6 E2 F2 G2 A2 c2- | %25
w: ri- gi- da man per- co- ti,\_e fie-|di, per- co- ti,\_e fie- di, per- co- ti,\_e fie-|di se ri- bel-|lan- te tra- vi- ar dal|
 c2 B4 A2 G2 A4 G2 | A4 z2 A2 =B4 c4 | C6 C2 _E8- | E4"^b" _E4 C8 | C4 =E4 D4 E4 | C4 D4 z4 A4 | %31
w: _ ve- ro ca- mi- *|no, e l'al- tro|con so- a-|* ve\_im- pe-|ro d'am- bro- sia|pas- ci, d'am-|
 G4 A8 F4 | E4 C2 D2 E2 F2 G4 | D4 z2 G2 ^F4 G4 | E4 D4 z4 D2 E2 | F2 G2 A6 B2 c4- | %36
w: bro- sia pas-|ci, se gir dritt' il ve-|di, d'am- bro- sia|pas- ci, se gir|drit- to\_il ve- * *|
 c4 =B4 z4 C2 D2 | E2 F2 G4 A8 || z16 | F8 D8 | z4 B4 A2 F2 G2 A2 | B2 B2 A4 G3 F G4 | C8 z4 A4 | %43
w: * di, se gir|drit- to\_il ve- di.||Ve- di,|ch'e gli\_a- ma\_il suon de|la cer- vi- ce Per- cos-|sa, ch'e-|
 G2 E2 F2 G2 A2 A2 G4 | F3 G A4 D2 G2 F3 G | A8 A3 B c4 | z16 | z4 F4 G4 A4 | D4 D2 F2 F4 F4 | %49
w: gli\_a- ma\_il suon de la cer- vi-|ce per- cos- sa, per- cos- *|* sa, _ _||e le lu-|sin- ghe, e le lu-|
 A8 G8 | z2 G4 G2 A8 | F8 E4 z2 E2 | F6 D2 E6 C2 | D2 G2 GFED C2 c2 c3 B/A/ | %54
w: sin- ghe,|e tra se|go- de, se|la tua va- ga|man l'a- dor- * * * * na,\_e co- * *|
 G2 AB c3 B/A/ G2 F2 G4 | A8 z2 E4 F2- | F2 G4 A4 =B4 c2- | c2 A2 =B2 c2 B4 B2 B2 | %58
w: |me, e, men-|* tre por- ta\_al ciel|_ del tuo bel no- me il|
 c2 CD EF G4"^#" ^FE F4 | G4 z2 D2 E8 | E8 E4 E4 | F8 G4 z4 | z2 A2 A4 A4 A4- | A4 =B4 c8 | G8 z8 | %65
w: ric- co _ in- * car- * * *|co, e di|tua chia- ra|lo- de,|e di tua chia-|* ra lo-|de,|
 z2 c2 A2 B2 cBAG F2 A2 | F2 G2 AGFE D2 G2 G4- | G2 FE D4 E8 | z2 A2 A4 A4 A4- | A4 =B4 c8 | %70
w: si tien piu d'E- * * * * to,\_e|di Pi- roo _ _ _ _ fe- li-|* * * * ce,|e di tua chia-|* ra lo-|
 G8 G4 E2 G2 | FGAB c2 A2 F2 G2 AGFE | D2 G2 G6 FE D4 | E16 |] %74
w: de, si tien piu|d'E- * * * * to,\_e di Pi- roo _ _ _|_ fe- li- * * *|ce.|
V:3
 C4 | [F,A]2 |[M:4/2] z16 | z16 | z8 C8 | C8 C4 C4- | C4 A,4 D8 | E8 E4 G4 | F8 E4 C4 | C4 C4 D8 | %10
w: ||||Su'l|car- ro del-|* la men-|te\_au- ri- ga|sie- di, o|bel- la don-|
 C8 z4 C4 | G6 G2 A4 A4 | G4 D4 z4 A4- | A2 A2 E4 F8 | F8 z4 D3 B, | F4 z2 F3 D G2 F3 G | %16
w: na, e|pren- di\_il fre- no\_al-|te- ro, on-|* de vi reg-|ga il des-|trier, il des- trier bian- *|
 A4 G4 z4 G4 | E2 E2 z4 z2 D2 G,2 A,2 | B,2 C2 D2 E2 F2 G2 A4- | A4 G2 F2 E2 F4 E2 | F8 C4 z2 F2 | %21
w: * co, e'l|ne- ro, e driz- zi|lor ver le ce- les- ti se-||di. L'un con|
 D3 D E2 F3 D G3 ^F G2 | EE A3 ^G A2 ^FF"^§" =G3 F"^§" G2 | C4 =F8 B,3 =F, | %24
w: ri- gi- da man per- co- ti,\_e fie-|di, per- co- ti,\_e fie- di, per- co- ti,\_e fie-|di se ri- bel-|
 G,2 A,2 B,2 C2 D2 E2 F4 | D4 C8 B,4 | A,2 E2 ^F4 G4 E4- | E4 =F4 G8- | G4 G4 F8 | E8 z4 G4 | %30
w: lan- te tra- vi- ar dal ve-|ro ca- mi-|no, a l'al- tro con|_ so- a-|* ve\_im- pe-|ro d'am-|
 ^F4 G4 E4 D4 | z4 D2 E2 =F2 G2 A4- | A4 E4 C2 D2 E2 F2 | G4 E4 z8 | z4 A4 G4 A4- | %35
w: bro- sia pas- ci,|se gir drit- to\_il ve-|* di, se gir drit- to\_il|ve- di,|d'am- bro- sia|
 A4 F4 E4 C2 D2 | E2 F2 G4 A4 A4 | G2 F4 E2 F8 || C8 A,8 | z16 | z16 | z8 C8 | A,8 z4 F4 | %43
w: _ pas- ci, se gir|drit- to\_il ve- di\_il ve-|* * * di.|Ve- di,|||ve-|di, ch'e-|
 E2 C2 D2 E2 F2 F2 E4 | D3 E F4 B,8 | z4 F4 F4 F4 | E8 D8 | z16 | z8 z4 B,4 | C4 D4 G,4 G,4 | %50
w: gli\_a- ma\_il suon de la cer- vi-|ce per- cos- sa,|e le lu-|sin- ghe,||e|le lu- sin- ghe,|
 z2 D4 C2 C8 | C8 C2 G2 E2 A2 | AGFE D2 G2 GFED C2 F2 | FEDC D2 G,2 z2 E2 A3 G/F/ | %54
w: e tra se|go- de, se la tua|va- * * * * ga man _ _ _ _ l'a-|dor- * * * * na, e co- * *|
 E2 FG A3 G/F/ E2 F4 E2 | F8 z2 C4 D2- | D2 E4 F4 G4 A2- | A2 F2 G2 A2 G4 G2 D2 | E6 D2 C4 C4 | %59
w: |me, e, men-|* tre port' al ciel|_ del tuo bel no- me il|ric- co\_in- car- co,|
 z2 D2 G8 G4- | G4 G4 G4 A4- | A2 G2 F4 E2 E2 C2 D2 | EDCB, A,2 C2 A,2 B,2 CB,A,G, | F,4 F4 E8 | %64
w: e di tua|_ chia- ra lo-|* * * de, si tien piu|d'E- * * * * to,\_e di Pi- roo _ _ _|_ fe- li-|
 E4 z2 G2 E2 F2 GFED | C2 A,2 F,2 G,2 A,G,A,B, C4 | C4 F6 E2 E2 DC | D8 C2 E2 C2 D2 | %68
w: ce, si tien piu d'E- * * *|* to,\_e di Pi- roo _ _ _ _|fe- li- * * * *|* ce, si tien piu|
 EDCB, A,2 C2 A,2 B,2 CB,A,G, | F,4 F4 E8 | E4 z2 G2 E2 F2 GFED | C2 C2 A,3 B, C4 F4 | %72
w: d'E- * * * * to,\_e di Pi- roo _ _ _|_ fe- li-|ce, si tien piu d'E- * * *|* to,:e di Pi- roo fe-|
 F2 E2 E2 DC D8 | C16 |] %74
w: li- * * * * *|ce.|
V:4
 C,4 | [B,,D]2 |[M:4/2] z16 | z16 | z8 C,8 | C,2 D,2 E,2 C,2 F,6 G,2 | A,2 B,2 C6"^§" =B,A, B,4 | %7
w: ||||Su'l|car- ro del- la men- te\_au-|ri- ga sie- * * *|
 C4 C,4 C,4 C,4 | D,8 C,8 | z4 C,4 G,6 G,2 | A,4 A,4 G,4 C,4 | z8 z4 z2 D,2 | G,6 F,2 E,4 D,2 D2- | %13
w: di O bel- la|don- na,|e prend' il|fre- no\_al- te- ro,|e|prend' il fre- no\_al- te-|
 D2 ^C=B, C4 D4"^b" _B,4- | B,2 B,2 F,4 G,8 | D,3 B,, F,4 B,3 G, D4 | C8 G,8 | A,2 A,2 z4 z8 | %18
w: * * * * ro, on-|* de vi reg-|ga\_il des- trier, il des- trier|bianc', e'l|ne- ro,|
 D8 D,2 E,2 F,2 G,2 | A,2 B,2 C2 D2 C8 | F,8 z8 | z16 | z16 | z16 | z16 | z16 | z2 A,2 D4 G,4 C4- | %27
w: e driz- zi lor ver|le ce- les- ti se-|di,||||||e l'al- tro con|
 C4 F,4 _E,8- | E,4"^b" _E,4 F,8 | C,4 C4 =B,4 C4 | A,4 G,4 z8 | z8 D,2 E,2 F,2 G,2 | %32
w: _ so- a-|* ve\_im- pe-|ro d'am- bro- sia|pas- ci,|se gir drit- to\_il|
 A,4 A,4 z4 C4 | =B,4 C4 A,4 G,4 | z16 | D,2 E,2 F,2 G,2 A,8 | G,8 F,2 G,2 A,2 B,2 | C8 F,8 || %38
w: ve- di, d'am-|bro- sia pas- ci,||se gir drit- to\_il ve-|di, se gir drit- to\_il|ve- di.|
 z16 | z16 | z16 | z16 | F,8 D,8 | z4 B,4 A,2 F,2 G,2 A,2 | B,2 B,2 A,4 G,3 A, B,4 | F,8 z4 F,4 | %46
w: ||||Ve- di,|ch'e- gli\_a- ma\_il suon de|la cer- vi- ce per- cos-|sa, e|
 G,4 A,4 D,4 D,2 D2 | D4 D4 C8 | B,16 | z16 | z2 G,4 E,2 F,8 | F,8 C,4 C4 | D4 B,4 C4 A,4 | %53
w: le lu- sin- ghe, e|le lu- sin-|ghe,||e tra se|go- de, se|la tua va- ga|
 B,4 G,4 A,4 F,4 | CB,A,G, F,G,A,B, C8 | F,8 z8 | z16 | z8 z4 z2 G,2 | C6 B,2 A,8 | G,4 z2 G,2 C8 | %60
w: man l'a- dor- na,\_e|co- * * * * * * * *|me,||il|ric- co\_in- car-|co, e di|
 C8 C4 C4 | D8 C2 C2 A,2 B,2 | CB,A,G, F,2 A,2 F,2 G,2 A,G,F,E, | D,8 C,8- | C,16 | F,16- | %66
w: tua chia- ra|lo- de, si tien piu|d'E- * * * * to,\_e di Pi- roo _ _ _|_ fe-||li-|
 F,8 G,8- | G,8 z2 C2 A,2 B,2 | CB,A,G, F,2 A,2 F,2 G,2 A,G,F,E, | D,8 C,8- | C,16 | F,16 | G,16 | %73
w: * ce,|_ si tien piu|d'E- * * * * to,\_e di Pi- roo _ _ _|_ fe-||li-||
 C,16 |] %74
w: ce.|

